src/24/actions/select-rectangular.svg

<svg xmlns="http://www.w3.org/2000/svg" viewBox="0 0 24 24">
  <defs id="defs3051">
    <style type="text/css" id="current-color-scheme">
      .ColorScheme-Text {
        color:#5d656b;
      }
      </style>
  </defs>
 <path style="fill:currentColor;fill-opacity:1;stroke:none" 
     d="M 3 4 L 3 6 L 4 6 L 4 11 L 4 13 L 4 18 L 3 18 L 3 20 L 5 20 L 5 19 L 11 19 L 13 19 L 14 19 L 19 19 L 19 20 L 21 20 L 21 18 L 20 18 L 20 13 L 20 11 L 20 10 L 20 6 L 21 6 L 21 4 L 19 4 L 19 5 L 14 5 L 13 5 L 11 5 L 10 5 L 5 5 L 5 4 L 3 4 z M 5 6 L 19 6 L 19 18 L 13 18 L 11 18 L 5 18 L 5 6 z M 6 7 L 6 17 L 9 17 L 9 16 L 7 16 L 7 8 L 9 8 L 17 8 L 18 8 L 18 7 L 6 7 z M 16 9 L 15.003906 9.9941406 L 15 9.9902344 L 10 14.988281 L 10.007812 14.996094 L 10.003906 16 L 10 16 L 10 16.990234 L 10 17 L 12 17 L 12.005859 16.994141 L 12.009766 16.990234 C 12.013766 16.990214 12.015531 16.992088 12.019531 16.992188 L 12.013672 16.986328 L 13 16 L 17 12.003906 L 16.294922 11.294922 L 11.304688 16.28125 L 10.710938 15.689453 L 15.703125 10.701172 L 16.294922 11.294922 L 17 11.998047 L 18 10.998047 L 16 9 z "
     class="ColorScheme-Text"
     />
</svg>

<svg xmlns="http://www.w3.org/2000/svg" viewBox="0 0 24 24"><path d="M3 4v2h1v12H3v2h2v-1h14v1h2v-2h-1V6h1V4h-2v1H5V4H3zm2 2h14v12H5V6zm1 1v10h3v-1H7V8h11V7H6zm10 2l-.996.994L15 9.99l-5 4.998.008.008L10.004 16H10v1h2l.006-.006.004-.004.01.002-.006-.006L13 16l4-3.996-.705-.71-4.99 4.987-.594-.592 4.992-4.988.592.594.705.703 1-1L16 9z" fill="currentColor" color="#5d656b"/></svg>
